assets/src/edit-story/icons/close_icon.svg

<svg fill="none" height="12" viewBox="0 0 12 12" width="12" xmlns="http://www.w3.org/2000/svg"><path d="m9.34243 3.87868-2.12132 2.12132 2.12132 2.12132-1.06066 1.06066-2.12132-2.12132-2.12132 2.12132-1.06066-1.06066 2.12132-2.12132-2.12132-2.12132 1.06066-1.06066 2.12132 2.12132 2.12132-2.12132z" fill="#fff"/></svg>

<svg width="12" height="12" viewBox="0 0 12 12" fill="none" xmlns="http://www.w3.org/2000/svg">
<path d="M9.34243 3.87868L7.22111 6L9.34243 8.12132L8.28177 9.18198L6.16045 7.06066L4.03913 9.18198L2.97847 8.12132L5.09979 6L2.97847 3.87868L4.03913 2.81802L6.16045 4.93934L8.28177 2.81802L9.34243 3.87868Z" fill="white"/>
</svg>
